X:1
T:178
T:André Campra (1660 - 1744)
T:3. Choeur Quia apud te De Profundis - Psaume 129
L:1/8
Q:1/4=120
M:3/4
K:F
V:1 bass nm="[Basses et Basse continue]"
V:1
 F,4 | B,2 A,2 G,2 | F,6 | F,2 G,2 A,2 | A,3 G, F,2 | C,2 C2 B,2 | A,2 B,2 G,2 | D3 B, C2 | %8
 F,4 D,2 | A,3 A, A,2 | F,2 G,4 | G,4 G,2 | G,3 G, G,2 | F,2 G,2 G,,2 | C,2 C2 C2 | C2 E,2 F,2 | %16
 C6 | C,2 C,3 C, | F,6 | F,,2 F,,3 F,, | B,,4 B,2 | D,2 D,3 D, | _E,6 | C,2 G,2 _E,2 | F,2 F,,4 | %25
 B,,4 z2 |"^doux" B,4 z2 | B,4 z2 | B,4 z2 | B,3 A, B,2 | C2 D2 _E2 | D4"^fort" D2 | B,2 G,2 G,,2 | %33
 C,4 z2 | C4 z2 | C,3 C, C,2 | F,4 F,2 | D,3 D, D,2 | A,2 A,2 F,2 | B,3 B, B,2 | G,2 A,2 A,,2 | %41
 D,4 z2 |"^[doux]" G4 z2 | G4 z2 | G4 z2 | G3 F E2 | F2 F2 E2 | D4- DC | C4"^[fort]" C2 | C4 z2 | %50
 C4 z2 | C,3 C, C,2 | F,2 F,2 F,2 | F,4 z2 | F,,4 z2 | B,,3 B,, B,,2 | B,,2 A,,2 B,,2 | C,6 | %58
 F,,4 z2 | F,,4 z2 | F,,4 z2 | F,,4 z2 | F,3 E, D,2 | C,2 A,,2 B,,2 | C,2 C,,4 | F,,6 |] %66

